X: 02084
T: MONDAY MORNING
C: Bob McQuillen Dec'75
B: Bob's Note Book 1&2 #84
%R: march, polka
Z: 2019 John Chambers <jc:trillian.mit.edu>
N: The 2nd strain has a final repeat but no initial repeat; fixed.
M: none
L: 1/8
K: D
|: d2A2 d2A2 | g2a2 f2d2 | b2a2 gfed | e2a2 A2Bc |\
|  d2A2 d2A2 | g2a2 f2d2 | b2a2 gfed | e2c2 d4 :|
|: e2AB c2A2 | e2AB c2A2 | d2eg f2a2 | g2b2 a4 |\
|  e2AB c2A2 | d2eg f2a2 | g2eg f2d2 | e2a2 d4 :|
%%begintext align
%% Thank Stevie Dougan
%% for this tune!
%%endtext

%%sep 1 1 500

%%sep 1 1 500

